X: 281
T: O White Maive
B: O'Neill's 281
N: "Very slow"
Z: 1997 by John Chambers <jc@trillian.mit.edu>
M: 3/4
L: 1/8
K:Gm
d>c \
| (B>AG>AB>c) | d4 (c>B) | c4 (B>A) | G4 (d>c) \
| (B>AG>AB>c) | d4 (b>a) | g3/2 (f/ e>d) | c2 z2 (d>c) |
| (B>AG>AB>c) | d4 (b>a) | g3/2 (f/ e>d) | c2 z2 (d>c) \
| (B>AG>AB>c) | d4 (c>B) | c4 (B>A) | (.G2 .G2) ||


